material/.icons/material/border-bottom-variant.svg

<svg xmlns="http://www.w3.org/2000/svg" viewBox="0 0 24 24"><path d="M5 15H3v2h2m-2 4h18v-2H3m2-8H3v2h2m14-4h2V7h-2m0-2h2V3h-2M5 7H3v2h2m14 8h2v-2h-2m0-2h2v-2h-2m-2-8h-2v2h2m-4-2h-2v2h2M5 3H3v2h2m4-2H7v2h2"/></svg>

<?xml version="1.0" encoding="UTF-8"?><!DOCTYPE svg PUBLIC "-//W3C//DTD SVG 1.1//EN" "http://www.w3.org/Graphics/SVG/1.1/DTD/svg11.dtd"><svg xmlns="http://www.w3.org/2000/svg" xmlns:xlink="http://www.w3.org/1999/xlink" version="1.1" id="mdi-border-bottom-variant" width="24" height="24" viewBox="0 0 24 24"><path d="M5,15H3V17H5M3,21H21V19H3M5,11H3V13H5M19,9H21V7H19M19,5H21V3H19M5,7H3V9H5M19,17H21V15H19M19,13H21V11H19M17,3H15V5H17M13,3H11V5H13M5,3H3V5H5M9,3H7V5H9" /></svg>
